X:140
T:Flowers of Edinburgh
R:Reel
C:Trad
S:Aly Bain Book
M:C
L:1/8
Q:1/4=200
K:G
|:GE|D2DE G2GA|BGBd cBAG|FGFE DEFG|AFdF E2GE|
D2DE G2GA|BGBd efge|dcBA GFGA|B2G2 G2:|
d2|:g2g2 gbag|f2f2 fagf|edef gfed|B2e2 e2ge|
dBGB d3d|[1 edef g2fe|dcBA GFGA|B2G2 G2d2:|
|[2 edef agfe|dcBA GFGA|B2G2 G2|]
